html/dist/img/svg/track.svg

<svg width="64" height="40" viewBox="0 0 64 40" fill="none" xmlns="http://www.w3.org/2000/svg">
<path d="M8 23.9738C8.55225 23.9738 9 24.4216 9 24.9738V31.9808H10.591C10.9831 28.5125 14.1126 26.0187 17.5809 26.4107C20.5091 26.7417 22.8199 29.0526 23.151 31.9808H44V2.98083H9V6.12584C9 6.67809 8.55225 7.12584 8 7.12584C7.44775 7.12584 7 6.67809 7 6.12584V1.98083C7 1.42858 7.44775 0.980835 8 0.980835H45C45.5522 0.980835 46 1.42858 46 1.98083V2.98083H57.452C59.9624 2.98408 61.9968 5.01834 62 7.52884V8.98083C62 9.53308 61.5522 9.98083 61 9.98083H59.837L60.6 19.1458C62.5969 19.6656 63.993 21.4653 64 23.5288V31.9808C64 32.5331 63.5523 32.9808 63 32.9808H60.975C60.7009 36.5568 57.5796 39.2336 54.0036 38.9595C50.8086 38.7146 48.27 36.1758 48.025 32.9808C48.016 32.9808 48.009 32.9858 48 32.9858H46C46 33.5381 45.5522 33.9858 45 33.9858H23.06C22.3476 37.404 18.9991 39.5973 15.581 38.885C13.1189 38.3718 11.1951 36.448 10.682 33.9858H8C7.44775 33.9858 7 33.5381 7 32.9858V24.9738C7 24.4215 7.44775 23.9738 8 23.9738ZM54.5 36.9808C56.9852 36.9808 59 34.9661 59 32.4808C59 29.9956 56.9852 27.9808 54.5 27.9808C52.0147 27.9808 50 29.9956 50 32.4808C50.0028 34.965 52.0159 36.9781 54.5 36.9808ZM46 30.9808H48C48.0586 30.987 48.1166 30.9986 48.173 31.0158C48.9773 27.5217 52.4618 25.3412 55.9558 26.1455C58.365 26.7 60.2501 28.5747 60.818 30.9808H62V23.5288C61.9984 22.1223 60.8585 20.9825 59.452 20.9808H46V30.9808ZM46 18.9808H58.58L57.83 9.98083H46V18.9808ZM46 7.98083H60V7.52884C59.9984 6.12234 58.8585 4.98246 57.452 4.98083H46V7.98083ZM12.5556 32.9408C12.6841 35.2286 14.5788 37.0167 16.87 37.0128H16.871C18.9691 37.0082 20.7606 35.4971 21.119 33.4298C20.9437 33.1236 20.9637 32.7431 21.17 32.4568C21.0364 30.0781 18.9996 28.258 16.6208 28.3916C14.242 28.5252 12.4219 30.562 12.5556 32.9408Z" fill="#E30613"/>
<path d="M9 8.98083H23C23.5523 8.98083 24 9.42858 24 9.98083C24 10.5331 23.5523 10.9808 23 10.9808H9C8.44775 10.9808 8 10.5331 8 9.98083C8 9.42858 8.44775 8.98083 9 8.98083Z" fill="#E30613"/>
<path d="M7 19.9808H29C29.5523 19.9808 30 20.4286 30 20.9808C30 21.5331 29.5523 21.9808 29 21.9808H7C6.44775 21.9808 6 21.5331 6 20.9808C6 20.4286 6.44775 19.9808 7 19.9808Z" fill="#E30613"/>
<path d="M9 13.9808H20C20.5523 13.9808 21 14.4286 21 14.9808C21 15.5331 20.5523 15.9808 20 15.9808H9C8.44775 15.9808 8 15.5331 8 14.9808C8 14.4286 8.44775 13.9808 9 13.9808Z" fill="#E30613"/>
<path d="M5 10.9808H3C2.44775 10.9808 2 10.5331 2 9.98083C2 9.42858 2.44775 8.98083 3 8.98083H5C5.55225 8.98083 6 9.42858 6 9.98083C6 10.5331 5.55225 10.9808 5 10.9808Z" fill="#E30613"/>
<path d="M2 19.9808H4C4.55225 19.9808 5 20.4286 5 20.9808C5 21.5331 4.55225 21.9808 4 21.9808H2C1.44775 21.9808 1 21.5331 1 20.9808C1 20.4286 1.44775 19.9808 2 19.9808Z" fill="#E30613"/>
<path d="M1 13.9808H5C5.55225 13.9808 6 14.4286 6 14.9808C6 15.5331 5.55225 15.9808 5 15.9808H1C0.44775 15.9808 0 15.5331 0 14.9808C0 14.4286 0.44775 13.9808 1 13.9808Z" fill="#E30613"/>
</svg>

<svg width="64" height="40" viewBox="0 0 64 40" fill="none" xmlns="http://www.w3.org/2000/svg"><path d="M8 23.974a1 1 0 011 1v7.007h1.591a6.32 6.32 0 0112.56 0H44v-29H9v3.145a1 1 0 01-2 0V1.98a1 1 0 011-1h37a1 1 0 011 1v1h11.452A4.554 4.554 0 0162 7.529V8.98a1 1 0 01-1 1h-1.163l.763 9.165a4.545 4.545 0 013.4 4.383v8.452a1 1 0 01-1 1h-2.025a6.494 6.494 0 01-12.95 0c-.009 0-.016.005-.025.005h-2a1 1 0 01-1 1H23.06a6.322 6.322 0 01-12.378 0H8a1 1 0 01-1-1v-8.012a1 1 0 011-1zM54.5 36.98a4.5 4.5 0 100-9 4.5 4.5 0 000 9zm-8.5-6h2a.928.928 0 01.173.035 6.492 6.492 0 0112.645-.035H62v-7.452a2.551 2.551 0 00-2.548-2.548H46v10zm0-12h12.58l-.75-9H46v9zm0-11h14v-.452a2.551 2.551 0 00-2.548-2.548H46v3zM12.556 32.94a4.314 4.314 0 004.314 4.072h.001a4.321 4.321 0 004.248-3.583.9.9 0 01.051-.973 4.314 4.314 0 00-8.614.484z" fill="#E30613"/><path d="M9 8.98h14a1 1 0 010 2H9a1 1 0 010-2zm-2 11h22a1 1 0 010 2H7a1 1 0 010-2zm2-6h11a1 1 0 010 2H9a1 1 0 010-2zm-4-3H3a1 1 0 010-2h2a1 1 0 010 2zm-3 9h2a1 1 0 010 2H2a1 1 0 010-2zm-1-6h4a1 1 0 010 2H1a1 1 0 010-2z" fill="#E30613"/></svg>
